symbols/web/looks_6/materialsymbolsrounded/looks_6_wght700grad200fill1_24px.svg

<svg xmlns="http://www.w3.org/2000/svg" height="24" width="24"><path d="M11.125 10.675v-1.2h2.1q.55 0 .912-.375.363-.375.363-.925 0-.575-.363-.95-.362-.375-.937-.375h-2.075q-1.2 0-1.912.712-.713.713-.713 1.913v5.05q0 1.2.713 1.913.712.712 1.912.712h1.75q1.2 0 1.913-.712.712-.713.712-1.913v-1.2q0-1.2-.712-1.925-.713-.725-1.913-.725Zm0 2.65h1.75v1.2h-1.75ZM5.3 22.1q-1.425 0-2.412-.987Q1.9 20.125 1.9 18.7V5.3q0-1.425.988-2.413Q3.875 1.9 5.3 1.9h13.4q1.425 0 2.413.987.987.988.987 2.413v13.4q0 1.425-.987 2.413-.988.987-2.413.987Z"/></svg>

<svg xmlns="http://www.w3.org/2000/svg" height="24" width="24"><path d="M11.125 10.675V9.475Q11.125 9.475 11.125 9.475Q11.125 9.475 11.125 9.475H13.225Q13.775 9.475 14.137 9.1Q14.5 8.725 14.5 8.175Q14.5 7.6 14.137 7.225Q13.775 6.85 13.2 6.85H11.125Q9.925 6.85 9.213 7.562Q8.5 8.275 8.5 9.475V14.525Q8.5 15.725 9.213 16.438Q9.925 17.15 11.125 17.15H12.875Q14.075 17.15 14.788 16.438Q15.5 15.725 15.5 14.525V13.325Q15.5 12.125 14.788 11.4Q14.075 10.675 12.875 10.675ZM11.125 13.325H12.875Q12.875 13.325 12.875 13.325Q12.875 13.325 12.875 13.325V14.525Q12.875 14.525 12.875 14.525Q12.875 14.525 12.875 14.525H11.125Q11.125 14.525 11.125 14.525Q11.125 14.525 11.125 14.525ZM5.3 22.1Q3.875 22.1 2.888 21.113Q1.9 20.125 1.9 18.7V5.3Q1.9 3.875 2.888 2.887Q3.875 1.9 5.3 1.9H18.7Q20.125 1.9 21.113 2.887Q22.1 3.875 22.1 5.3V18.7Q22.1 20.125 21.113 21.113Q20.125 22.1 18.7 22.1Z"/></svg>
